public/playing-not.svg

<svg width="32" height="32" viewBox="0 0 32 32" fill="none" xmlns="http://www.w3.org/2000/svg">
<path d="M6.55874 16H5.33474C3.62541 16 2.35741 17.5867 2.73341 19.2533L3.63608 23.2533C3.91074 24.4693 4.99074 25.3333 6.23741 25.3333H7.83208C8.26008 25.3333 8.57608 24.9373 8.48274 24.52L6.76008 16.892C5.42274 10.968 9.92674 5.33333 16.0001 5.33333V5.33333V5.33333C22.0734 5.33333 26.5774 10.968 25.2401 16.892L23.5187 24.52C23.4241 24.9373 23.7414 25.3333 24.1681 25.3333H25.7627C27.0094 25.3333 28.0894 24.4693 28.3641 23.2533L29.2667 19.2533C29.6427 17.5867 28.3747 16 26.6654 16H25.4414" stroke="#658BE7" stroke-width="2" stroke-linecap="round" stroke-linejoin="round"/>
</svg>

<svg width="32" height="32" viewBox="0 0 32 32" fill="none" xmlns="http://www.w3.org/2000/svg"><path d="M6.559 16H5.335a2.667 2.667 0 00-2.602 3.253l.903 4a2.667 2.667 0 002.601 2.08h1.595a.667.667 0 00.65-.813L6.76 16.892C5.423 10.968 9.927 5.333 16 5.333v0c6.073 0 10.577 5.635 9.24 11.559L23.52 24.52a.666.666 0 00.65.813h1.594a2.667 2.667 0 002.601-2.08l.903-4A2.667 2.667 0 0026.665 16h-1.224" stroke="#658BE7" stroke-width="2" stroke-linecap="round" stroke-linejoin="round"/></svg>
